svgs/sharp-light/display-slash.svg

<svg xmlns="http://www.w3.org/2000/svg" viewBox="0 0 640 512"><!--! Font Awesome Pro 6.6.0 by @fontawesome - https://fontawesome.com License - https://fontawesome.com/license (Commercial License) Copyright 2024 Fonticons, Inc. --><path d="M32 110.3L32 384l0 32 32 0 181.1 0-10.7 64L176 480l-16 0 0 32 16 0 72 0 144 0 72 0 16 0 0-32-16 0-58.4 0-10.7-64 24.3 0-40.5-32-2.4 0c-.2 0-.4 0-.6 0l-111.5 0c-.2 0-.4 0-.6 0L64 384l0-248.4L32 110.3zM608 402l0-18 0-352 0-32L576 0 64 0 32 0l0 .2 67 0L139.4 32 576 32l0 344.7L608 402zM277.6 416l84.9 0 10.7 64-106.2 0 10.7-64zM32.5 10L19.9 .1 .1 25.3l12.6 9.9L607.8 502.2l12.6 9.9 19.8-25.2-12.6-9.9L32.5 10z"/></svg>

<svg xmlns="http://www.w3.org/2000/svg" viewBox="0 0 640 512"><!--! Font Awesome Pro 6.5.2 by @fontawesome - https://fontawesome.com License - https://fontawesome.com/license (Commercial License) Copyright 2024 Fonticons, Inc. --><path d="M32 110.3V384v32H64 245.1l-10.7 64H176 160v32h16 72H392h72 16V480H464 405.6l-10.7-64h24.3l-40.5-32h-2.4c-.2 0-.4 0-.6 0H264.3c-.2 0-.4 0-.6 0H64V135.6L32 110.3zM608 402V384 32 0H576 64 32V.2H99L139.4 32H576V376.7L608 402zM277.6 416h84.9l10.7 64H266.9l10.7-64zM40.4 18L27.8 8.1 8.1 33.4l12.6 9.8L599.8 494.3l12.6 9.8 19.7-25.2L619.5 469 40.4 18z"/></svg>
